Newaita/actions/22/format-text-capitalize.svg

<svg height="22" viewBox="0 0 22 22" width="22" xmlns="http://www.w3.org/2000/svg"><g fill="#424242"><path d="m11.824219 8.359375v10.914063h1.820312v-.363282c.535157.230469 1.15625.363282 1.820313.363282 1.808594 0 3.300781-.980469 3.585937-2.273438h.050781v-.457031c0-1.511719-1.621093-2.726563-3.636718-2.726563-.664063 0-1.285156.132813-1.820313.363282v-5.820313zm3.640625 7.277344c1.007812 0 1.816406.402343 1.816406.90625 0 .503906-.808594.910156-1.816406.910156-1.007813 0-1.820313-.40625-1.820313-.910156 0-.503907.8125-.90625 1.820313-.90625zm0 0"/><path d="m6.367188 8.359375c-2.015626 0-3.636719 1.214844-3.636719 2.726563v8.1875h1.816406v-3.636719h3.640625v3.636719h1.816406v-8.1875c0-1.511719-1.621094-2.726563-3.636718-2.726563zm0 1.816406c1.007812 0 1.820312.40625 1.820312.910157v2.730468h-3.640625v-2.730468c0-.503907.8125-.910157 1.820313-.910157zm0 0"/><path d="m3.183594 2.902344h6.367187l-3.183593 4.546875zm0 0"/></g></svg>

<svg xmlns="http://www.w3.org/2000/svg" xmlns:xlink="http://www.w3.org/1999/xlink" width="22px" height="22px" viewBox="0 0 22 22" version="1.1">
<g id="surface1">
     <defs>
  <style id="current-color-scheme" type="text/css">
   .ColorScheme-Text { color:#424242; } .ColorScheme-Highlight { color:#eeeeee; }
  </style>
 </defs>
<path style="fill:currentColor" class="ColorScheme-Text" d="M 11.824219 8.359375 L 11.824219 19.273438 L 13.644531 19.273438 L 13.644531 18.910156 C 14.179688 19.140625 14.800781 19.273438 15.464844 19.273438 C 17.273438 19.273438 18.765625 18.292969 19.050781 17 L 19.101562 17 L 19.101562 16.542969 C 19.101562 15.03125 17.480469 13.816406 15.464844 13.816406 C 14.800781 13.816406 14.179688 13.949219 13.644531 14.179688 L 13.644531 8.359375 Z M 15.464844 15.636719 C 16.472656 15.636719 17.28125 16.039062 17.28125 16.542969 C 17.28125 17.046875 16.472656 17.453125 15.464844 17.453125 C 14.457031 17.453125 13.644531 17.046875 13.644531 16.542969 C 13.644531 16.039062 14.457031 15.636719 15.464844 15.636719 Z M 15.464844 15.636719 "/>
     <defs>
  <style id="current-color-scheme" type="text/css">
   .ColorScheme-Text { color:#424242; } .ColorScheme-Highlight { color:#eeeeee; }
  </style>
 </defs>
<path style="fill:currentColor" class="ColorScheme-Text" d="M 6.367188 8.359375 C 4.351562 8.359375 2.730469 9.574219 2.730469 11.085938 L 2.730469 19.273438 L 4.546875 19.273438 L 4.546875 15.636719 L 8.1875 15.636719 L 8.1875 19.273438 L 10.003906 19.273438 L 10.003906 11.085938 C 10.003906 9.574219 8.382812 8.359375 6.367188 8.359375 Z M 6.367188 10.175781 C 7.375 10.175781 8.1875 10.582031 8.1875 11.085938 L 8.1875 13.816406 L 4.546875 13.816406 L 4.546875 11.085938 C 4.546875 10.582031 5.359375 10.175781 6.367188 10.175781 Z M 6.367188 10.175781 "/>
     <defs>
  <style id="current-color-scheme" type="text/css">
   .ColorScheme-Text { color:#424242; } .ColorScheme-Highlight { color:#eeeeee; }
  </style>
 </defs>
<path style="fill:currentColor" class="ColorScheme-Text" d="M 3.183594 2.902344 L 9.550781 2.902344 L 6.367188 7.449219 Z M 3.183594 2.902344 "/>
</g>
</svg>
